X:3455
T:Corriechoillie's welcome
S:Rogart
R:March
O:Scotland
M:2/4
L:1/8
K:D
e|\
A>B Ad|e>d BA|d>e fa|fe ef|\
A>B Ad|e>d BA|d>e fa|fd d::\
g|\
a>f df|e>d BA|d>e fa|fe eg\
|1 a>f df|e>d BA|d>e fa|fd d\
:|2A>B Ad|e>d BA|d>e fa|fd d||


